svgs/duotone/line-height.svg

<svg xmlns="http://www.w3.org/2000/svg" viewBox="0 0 576 512"><!-- Font Awesome Pro 6.0.0-alpha2 by @fontawesome - https://fontawesome.com License - https://fontawesome.com/license (Commercial License) --><defs><style>.fa-secondary{opacity:.4}</style></defs><path d="M288 128H544C561.674 128 576 113.674 576 96S561.674 64 544 64H288C270.326 64 256 78.326 256 96S270.326 128 288 128ZM544 224H288C270.326 224 256 238.326 256 256S270.326 288 288 288H544C561.674 288 576 273.674 576 256S561.674 224 544 224ZM544 384H288C270.326 384 256 398.326 256 416S270.326 448 288 448H544C561.674 448 576 433.674 576 416S561.674 384 544 384Z" class="fa-secondary"/><path d="M182.625 361.375C195.125 373.875 195.125 394.125 182.625 406.625L118.625 470.625C112.375 476.875 104.188 480 96 480S79.625 476.875 73.375 470.625L9.375 406.625C-3.125 394.125 -3.125 373.875 9.375 361.375S42.125 348.875 54.625 361.375L64 370.75V141.25L54.625 150.625C42.125 163.125 21.875 163.125 9.375 150.625S-3.125 117.875 9.375 105.375L73.375 41.375C85.875 28.875 106.125 28.875 118.625 41.375L182.625 105.375C195.125 117.875 195.125 138.125 182.625 150.625C176.375 156.875 168.188 160 160 160S143.625 156.875 137.375 150.625L128 141.25V370.75L137.375 361.375C149.875 348.875 170.125 348.875 182.625 361.375Z" class="fa-primary"/></svg>

<svg xmlns="http://www.w3.org/2000/svg" viewBox="0 0 576 512"><!--! Font Awesome Pro 6.0.0-alpha3 by @fontawesome - https://fontawesome.com License - https://fontawesome.com/license (Commercial License) --><defs><style>.fa-secondary{opacity:.4}</style></defs><path class="fa-primary" d="M182.6 361.4c12.5 12.5 12.5 32.75 0 45.25l-64 64C112.4 476.9 104.2 480 96 480s-16.38-3.125-22.62-9.375l-64-64c-12.5-12.5-12.5-32.75 0-45.25s32.75-12.5 45.25 0L64 370.8v-229.5L54.63 150.6c-12.5 12.5-32.75 12.5-45.25 0s-12.5-32.75 0-45.25l64-64c12.5-12.5 32.75-12.5 45.25 0l64 64c12.5 12.5 12.5 32.75 0 45.25C176.4 156.9 168.2 160 160 160S143.6 156.9 137.4 150.6L128 141.3v229.5l9.375-9.375C149.9 348.9 170.1 348.9 182.6 361.4z"/><path class="fa-secondary" d="M288 128h256c17.67 0 32-14.33 32-32s-14.33-32-32-32h-256C270.3 64 256 78.33 256 96S270.3 128 288 128zM544 224h-256C270.3 224 256 238.3 256 256s14.33 32 32 32h256c17.67 0 32-14.33 32-32S561.7 224 544 224zM544 384h-256c-17.67 0-32 14.33-32 32s14.33 32 32 32h256c17.67 0 32-14.33 32-32S561.7 384 544 384z"/></svg>
